img/steps-icons/img4.svg

<svg width="52" height="52" viewBox="0 0 52 52" fill="none" xmlns="http://www.w3.org/2000/svg">
<mask id="mask0_208_11050" style="mask-type:luminance" maskUnits="userSpaceOnUse" x="0" y="0" width="52" height="52">
<path d="M0 0H52V52H0V0Z" fill="white"/>
</mask>
<g mask="url(#mask0_208_11050)">
<path d="M17.5355 33.0361C18.5691 32.2135 18.736 30.698 17.9127 29.6684C17.0864 28.6359 15.5692 28.469 14.5386 29.2916L10.7356 32.3316C9.70196 33.154 9.53509 34.6726 10.3584 35.7021C11.1817 36.7317 12.7018 36.9015 13.7325 36.0761" stroke="#0383FD" stroke-width="2.20606" stroke-miterlimit="10" stroke-linecap="round" stroke-linejoin="round"/>
<path d="M16.7323 39.8206C15.6988 40.646 15.5319 42.1617 16.3552 43.1912C17.1786 44.2237 18.6986 44.3905 19.7293 43.5679L23.5323 40.5281C24.5658 39.7055 24.7328 38.187 23.9094 37.1574C23.0832 36.1279 21.5661 35.9581 20.5353 36.7835" stroke="#0383FD" stroke-width="2.20606" stroke-miterlimit="10" stroke-linecap="round" stroke-linejoin="round"/>
<path d="M19.7293 43.5679C18.6987 44.3904 18.5288 45.909 19.355 46.9385C20.1784 47.9681 21.6956 48.1378 22.7291 47.3124L24.8566 45.6098C25.8873 44.7873 26.0572 43.2716 25.2337 42.2421C24.4076 41.2096 22.8903 41.0428 21.8597 41.8653" stroke="#0383FD" stroke-width="2.20606" stroke-miterlimit="10" stroke-linecap="round" stroke-linejoin="round"/>
<path d="M35.5489 33.9045L38.2666 36.0759C39.2972 36.9013 39.4671 38.417 38.6438 39.4466C37.8174 40.4761 36.3002 40.6458 35.2696 39.8204L32.3217 37.4679" stroke="#0383FD" stroke-width="2.20606" stroke-miterlimit="10" stroke-linecap="round" stroke-linejoin="round"/>
<path d="M32.3216 37.468L35.2696 39.8205C36.3002 40.6459 36.4702 42.1617 35.6439 43.1913C34.8205 44.2237 33.3005 44.3904 32.2697 43.568L29.3246 41.2126" stroke="#0383FD" stroke-width="2.20606" stroke-miterlimit="10" stroke-linecap="round" stroke-linejoin="round"/>
<path d="M29.3247 41.2126L30.7958 42.3888C31.8265 43.2142 31.9964 44.7299 31.1729 45.7596C30.3467 46.7921 28.8295 46.9588 27.7989 46.1363L25.6569 44.4251" stroke="#0383FD" stroke-width="2.20606" stroke-miterlimit="10" stroke-linecap="round" stroke-linejoin="round"/>
<path d="M49.0251 24.4426L50.7899 27.5602C51.1987 28.2849 50.9424 29.2196 50.2141 29.6223L47.4936 31.1293C46.7652 31.532 45.8381 31.2789 45.4294 30.557L37.5872 16.6862C37.1755 15.9613 37.4318 15.0295 38.1601 14.627L40.8836 13.1199C41.6119 12.7173 42.536 12.9676 42.9449 13.6922L44.5369 16.505" stroke="#0383FD" stroke-width="2.20606" stroke-miterlimit="10" stroke-linecap="round" stroke-linejoin="round"/>
<path d="M41.0735 32.176C41.7154 30.7899 43.1147 29.7631 44.7211 29.3029" stroke="#0383FD" stroke-width="2.20606" stroke-miterlimit="10" stroke-linecap="round" stroke-linejoin="round"/>
<path d="M38.2666 36.0761C39.2972 36.9015 40.8173 36.7317 41.6407 35.7021C42.4669 34.6727 42.2971 33.154 41.2664 32.3316L37.9701 29.6971C36.3693 28.4202 34.5614 27.0052 32.8456 25.7743C29.7421 23.5512 28.2135 22.0729 24.324 22.8552C21.3846 23.4477 19.0066 22.5503 18.3877 20.0051C17.9904 18.3686 19.3837 17.6065 22.1447 17.3621L26.5495 16.968C27.4188 16.8904 27.937 16.81 29.3448 17.3017L32.0021 18.2306C33.7985 18.8576 33.5567 19.0243 35.425 18.4837L38.1544 17.6928" stroke="#0383FD" stroke-width="2.20606" stroke-miterlimit="10" stroke-linecap="round" stroke-linejoin="round"/>
<path d="M13.839 14.627L11.1184 13.1199C10.3901 12.7173 9.46305 12.9676 9.05426 13.6923L1.21211 27.5603C0.800374 28.285 1.05672 29.2197 1.78492 29.6223L4.50558 31.1293C5.23388 31.532 6.16094 31.2789 6.56973 30.5571L14.412 16.6862C14.8235 15.9614 14.5674 15.0296 13.839 14.627Z" stroke="#0383FD" stroke-width="2.20606" stroke-miterlimit="10" stroke-linecap="round" stroke-linejoin="round"/>
<path d="M18.3963 18.9954L13.8505 17.6782" stroke="#0383FD" stroke-width="2.20606" stroke-miterlimit="10" stroke-linecap="round" stroke-linejoin="round"/>
<path d="M10.9285 32.176C10.2835 30.7899 8.88441 29.7631 7.278 29.3029" stroke="#0383FD" stroke-width="2.20606" stroke-miterlimit="10" stroke-linecap="round" stroke-linejoin="round"/>
<path d="M25.9995 9.33789V4.16409" stroke="#0383FD" stroke-width="2.20606" stroke-miterlimit="10" stroke-linecap="round" stroke-linejoin="round"/>
<path d="M19.2226 11.4807L16.5163 7.18696" stroke="#0383FD" stroke-width="2.20606" stroke-miterlimit="10" stroke-linecap="round" stroke-linejoin="round"/>
<path d="M32.7794 11.4807L35.4827 7.18696" stroke="#0383FD" stroke-width="2.20606" stroke-miterlimit="10" stroke-linecap="round" stroke-linejoin="round"/>
<path d="M13.7324 36.0759L19.211 31.6987C20.2417 30.8762 21.7618 31.0458 22.5851 32.0754C23.4085 33.105 23.2415 34.6207 22.208 35.4461L16.7323 39.8204C15.6988 40.6458 14.1816 40.4761 13.3582 39.4466C12.532 38.417 12.7019 36.9013 13.7324 36.0759Z" stroke="#0383FD" stroke-width="2.20606" stroke-miterlimit="10" stroke-linecap="round" stroke-linejoin="round"/>
<path d="M46.7767 20.4768V20.4733" stroke="#0383FD" stroke-width="2.20606" stroke-miterlimit="10" stroke-linecap="round" stroke-linejoin="round"/>
</g>
</svg>

<svg width="52" height="52" fill="none" xmlns="http://www.w3.org/2000/svg"><mask id="a" style="mask-type:luminance" maskUnits="userSpaceOnUse" x="0" y="0" width="52" height="52"><path d="M0 0h52v52H0V0z" fill="#fff"/></mask><g mask="url(#a)" stroke="#0383FD" stroke-width="2.206" stroke-miterlimit="10" stroke-linecap="round" stroke-linejoin="round"><path d="M17.535 33.036a2.4 2.4 0 00.378-3.368 2.409 2.409 0 00-3.374-.376l-3.803 3.04a2.402 2.402 0 00-.378 3.37 2.408 2.408 0 003.374.374m3 3.744a2.403 2.403 0 00-.377 3.371 2.408 2.408 0 003.374.377l3.803-3.04a2.403 2.403 0 00.377-3.37 2.408 2.408 0 00-3.374-.375m-.805 6.785a2.402 2.402 0 00-.375 3.37 2.408 2.408 0 003.374.374l2.128-1.702a2.402 2.402 0 00.377-3.368 2.409 2.409 0 00-3.374-.377m13.689-7.961l2.718 2.172c1.03.825 1.2 2.341.377 3.37a2.409 2.409 0 01-3.374.374l-2.948-2.352"/><path d="M32.322 37.468l2.948 2.352c1.03.826 1.2 2.342.374 3.371a2.409 2.409 0 01-3.374.377l-2.945-2.355"/><path d="M29.325 41.213l1.47 1.176a2.405 2.405 0 01.378 3.37 2.409 2.409 0 01-3.374.377l-2.142-1.71m23.368-19.983l1.765 3.117c.409.725.152 1.66-.576 2.062l-2.72 1.507a1.527 1.527 0 01-2.065-.572l-7.842-13.87a1.508 1.508 0 01.573-2.06l2.724-1.507a1.522 1.522 0 012.06.572l1.593 2.813m-3.463 15.671c.641-1.386 2.04-2.413 3.647-2.873"/><path d="M38.267 36.076c1.03.825 2.55.656 3.374-.374a2.402 2.402 0 00-.375-3.37l-3.296-2.635c-1.6-1.277-3.409-2.692-5.124-3.923-3.104-2.223-4.632-3.701-8.522-2.919-2.94.593-5.317-.305-5.936-2.85-.398-1.636.996-2.398 3.757-2.643l4.404-.394c.87-.078 1.388-.158 2.796.334l2.657.929c1.796.627 1.555.793 3.423.253l2.73-.791m-24.316-3.066l-2.72-1.507a1.525 1.525 0 00-2.065.572L1.212 27.56a1.51 1.51 0 00.573 2.062l2.72 1.507c.729.403 1.656.15 2.065-.572l7.842-13.87a1.508 1.508 0 00-.573-2.06zm4.557 4.368l-4.546-1.317m-2.922 14.498c-.645-1.386-2.044-2.413-3.65-2.873M26 9.338V4.164m-6.777 7.316l-2.707-4.293M32.78 11.48l2.703-4.293M13.732 36.076l5.479-4.377a2.411 2.411 0 013.374.376 2.403 2.403 0 01-.377 3.371l-5.476 4.374a2.408 2.408 0 01-3.374-.373 2.403 2.403 0 01.374-3.371zm33.045-15.599v-.004"/></g></svg>
